X:450
T:Largo Law
R:Strathspey
B:The Athole Collection
M:C|
L:1/8
K:A
c|A<c e>f A>Bc>e|f<a e>c B/B/B B>c|A<c E>F A>Bc>e|f/e/f/g/ ac A/A/A A:|
e|a>ef>c e/e/e a>e|fac>c B/B/B B>g|a>ef>c e/e/e a>e|f<a e>c A/A/A A>e|
a>ef>c e/e/e a>e|f<a e>c B/B/B B>c|A<c E>F A>Bc>e|f/e/f/g/ a>c A/A/A A||

